X:2
T:Slip Jig 002
C:Generated
M:9/8
L:1/8
Q:3/8=106
K:Am
|: E E E A B ^C D E ^F | ^C D E B ^C D E ^F ^G | A B ^C E E E ^C ^C ^C | D D D D D D ^C B A | A A A ^C ^C ^C B ^C D | E ^F ^G E ^F ^G ^C B A | A A A ^C D E ^C B A | A A A D E ^F B ^C D | :|
|: ^C ^C ^C B ^C D A A A | D D D A A A ^C B A | D D D D D D E ^F ^G | B A A D D D ^C ^C ^C | A A A B ^C D B ^C D | E E E E E E ^C B A | E ^F ^G D E ^F ^C B A | A B ^C E E E A A A | :|
